X: 114
T:Jim Donoghue's
M:C|
L:1/8
S:Henrik Norbeck, Castle in the Air(Limericks)  Trip to Sligo
R:reel
B:Trip to Sligo
D:Kevin Crawford: D flute album
Z:id:hn-reel-638
K:D
|~A3F BFAF|BFAF EDB,D|~A3F BFAF|EDEF ~D3z|
~A3F BFAF|DF~F2 ABde|~f3e dfec|1 dBAF ~D3z:|2 dBAF DEFA||
|dffe ~f3e|dfed BAFA|Beed e2de|f2df edBA|
dffe ~f3e|dfed BAFA|ABde fdAF|1 EDEF DEFA:|2 EDEF ~D3z||
B | ~A3 F BFAF | BFAF EDB,D | ~A3 F BFAF | EDEF D3 B |
~A3 F BFAF | DF ~F2 ABde | f2 fe dfef |1 dBAF D3 :|2 dBAF D2 (3Bcd || 
f2 fe fgfe | dfed BAFA | Beed ~e2 de | fAdf ed (3Bcd |
f2 fe fgfe | dfed BAFB | ABde fdAF |1 EDEF D2 (3Bcd :|2 EDEF D3 ||
